app/dist/common/images/china-shenhua.svg

<svg height="18" width="18" xmlns="http://www.w3.org/2000/svg"><path d="m0 0h18v18h-18z" fill="#f0f3fa"/><path d="m8.721 4-1.97.771.992 2.447 1.97-.77-.991-2.448z" fill="#ba000c"/><path d="m6.78 6.586 1.731 1.156-2.403 3.45s-.235.296-.537.511c-.303.215-.538.297-.538.297h-2.033zm-.587 4.853c.536-.623 3.629-5.133 3.629-5.133l1.613 1.304-2.433 3.487s-.268.346-.57.56c-.303.215-.61.343-.61.343h-2.301s.235-.082.672-.561zm2.817 0c.536-.623 2.576-3.697 2.576-3.697l1.614 1.304-1.38 2.05s-.269.347-.571.561c-.303.215-.61.343-.61.343h-2.302s.236-.082.672-.561zm2.799 0c.536-.623 1.579-2.209 1.579-2.209l1.612 1.304-.382.563s-.268.346-.57.56c-.303.215-.61.343-.61.343h-2.301s.235-.082.672-.561z" fill="#231815"/></svg>

<!-- by TradingView --><svg width="18" height="18" xmlns="http://www.w3.org/2000/svg"><path fill="#F0F3FA" d="M0 0h18v18H0z"/><path d="M8.721 4l-1.97.771.992 2.447 1.97-.77L8.722 4z" fill="#BA000C"/><path d="M6.78 6.586l1.731 1.156-2.403 3.45s-.235.296-.537.511c-.303.215-.538.297-.538.297H3l3.78-5.414zM6.193 11.439c.536-.623 3.629-5.133 3.629-5.133l1.613 1.304-2.433 3.487s-.268.346-.57.56c-.303.215-.61.343-.61.343H5.521s.235-.082.672-.561zM9.01 11.439c.536-.623 2.576-3.697 2.576-3.697L13.2 9.046l-1.38 2.05s-.269.347-.571.561c-.303.215-.61.343-.61.343H8.337s.236-.082.672-.561zM11.809 11.439c.536-.623 1.579-2.209 1.579-2.209L15 10.534l-.382.563s-.268.346-.57.56c-.303.215-.61.343-.61.343h-2.301s.235-.082.672-.561z" fill="#231815"/></svg>
